!!!OTL: 558. Ubi bene, ibi patria.
!!!ARE: Europa, Mitteleuropa, Deutschland
!!!SCT: B0558
!!!TXL: @@DE
!!!YEM: Copyright 1995, estate of Helmut Schaffrath.
**kern	**text
*ICvox	*
*Ivox	*
*clefG2	*
*M3/4	*
*k[f#c#g#]	*
*A:	*
=1	=1
!LO:TX:a:t=Geſchwind.	!
{8a	Ue-
8a	-ber-
8a	-all
8a	bin
8g#	ich
8a	ʒu
=2	=2
4b	Hau-
4b	-ſe,
4r}	.
=3	=3
{8b	ü-
8b	-ber-
8b	-all
8b	bin
8a	ich
8b	be-
=4	=4
4cc#	-kannt.
4r	.
4r}	.
=5	=5
{8a	Macht
8a	das
8a	Glück
8a	im
8cc#	Nor-
8a	-den
=6	=6
4g#	Pau-
4f#}	-ſe,
{8f#	iſt
8f#	der
=7	=7
8e	Süd
8a	mein
4cc#	Va-
4b	-ter-
=8	=8
4a	-land.
4r	.
4r}	.
=9	=9
{8b	Luſ-
8b	-tig
8ee	hie
8ee	und
8b	luſ-
8b	-tig
=10	=10
4cc#	da,
4r}	.
{8a	u-
8a	-bi
=11	=11
8ff#	be-
8ff#	-ne,
8ee	i-
8ee	-bi
8g#	pa-
8g#	-tri-
=12	=12
4a	-a.
4r	.
4r}	.
=13	=13
{8b	Luſ-
8b	-tig
8ee	hie
8ee	und
8b	luſ-
8b	-tig
=14	=14
4cc#	da,
4r}	.
{8a	u-
8a	-bi
=15	=15
8ff#	be-
8ff#	-ne,
8ee	i-
8ee	-bi
8g#	pa-
8g#	-tri-
=16	=16
4a	-a.
4r	.
4r}	.
==	==
!!!AGN: Studenten - Lied
!!!GTL: Studentenlieder
!!!ONB: ESAC (Essen Associative Code) Database: BOEHME
!!!AMT: simple triple
!!!AIN: vox
!!!EED: Helmut Schaffrath
!!!EEV: 1.0
!!Nach dem Taſchenliederb. Paſſau. 1828 Nr. 87.
!!@@COMMENT:"Gedichte v. Friedrich T. Hückſtädt. Roſtock, gedruckt bey Chriſtian Müller 1806. (S. 144
!!und 145). Der Dichter, wahrſch. Student, war damals noch nicht über 25 Jahre alt, wie aus
!!der Vorrede folgt. Das Gedicht iſt ſpäter umgearbeitet und auf 9 Strophen erweitert worden.
!!So finden wir es in Commersbüchern mit dem Anfange: "Ueberall bin ich ʒu Hauſe" rc. (Abdr. ſ. Liederhort III, 497."
!!@@END:
!!!Text: F. T. Hückstädt
!!!URL-scan: https://archive.org/details/BoehmeVtLieder1895/page/n445/mode/2up
!!!ENC: Anna Maria Matuszewska
!!!EEV: 2024/12/07
*-	*-
